X:1
T:Title
%%score ( 1 2 ) { 3 | 4 }
L:1/8
Q:1/4=98
M:4/4
K:G
V:1 treble nm="Grand Piano, Soprano"
V:2 treble 
V:3 bass nm="Choir Pad, There’s a Light at the River"
V:4 bass 
V:1
 [B,D]>[B,D] [DG]2 [DG]>[DG] [DB]2 | [DG]2 [CE][EG] [EG]>[CE] [B,D]2 | %2
w: By~C.~D.~Overton,~harm.~by~H.~A.~R.~Horton * * * * *||
 [B,D]>[B,D] [DG]2 [DG]>[DB] [Gd]2 | [GB]2 [FA]6 | [Fd]>[Fd] G2 [DG]>[DG] [DB]2 | %5
w: |||
 [DG]>[DG] [CE]2 [CG]2 [B,D]2 | [Ec]>[Ec] [DB]2 [DB]>G [FA][FA]- | [FA]2 G6 | %8
w: |||
 [B,D]>[B,D] [Ec]2 [Ec]>[Ec] [Ec][Ge]- | [Ge][Gc] [GB]2 [GB]>[DG] [GB][GB]- | %10
w: ||
 [GB][Gd] [Gd]2 [Gd]>[Gd] [Ge][Gd] | [Fd][GB] [FA]6 | [Fd]2 [Gd]2- [Gd][GB] [GB]2 | z2 .A2 z4 | %14
w: ||||
 [Gc]2 [GB]2 [GB]>G [FA]<[FA] | [FA]2 G6- | G2 z2 z4 |] %17
w: |||
V:2
 x8 | x8 | x8 | x8 | x8 | x8 | x8 | x8 | x8 | x8 | x8 | x8 | x8 | [DG]2 E-[EG] [EG]>[CE] [EG]2 | %14
 x8 | x8 | x8 |] %17
V:3
 G,>G, B,2 B,>B, D2 | B,2 G,C C>G, G,2 | G,>G, B,2 B,>G, B,2 | D2 D6 | C>C B,2[K:bass] B,>B, D2 | %5
 B,>G, G,2 G,2 G,2 | G,>G, G,2 G,>B,[K:treble] CC- | C2 B,6 | %8
 G,>[K:bass]G, G,2 G,>G, G,[K:treble]C- | CE D2 D>B, DD- | D[K:bass]B, B,2 B,>B, CB, | DD D6 | %12
 C2 B,2- B,D D2 | G,2 G,2 C>G, C2 | E2 D2 D>B, C<C | C2 B,6- | B,2 z2 z4 |] %17
V:4
 G,,>G,, G,2 G,>G, G,2 | G,2 C,C, C,>C, G,,2 | G,,>G,, G,2 G,2 G,2 | G,2 D,6 | %4
 D,>D, G,2 G,>G, G,2 | G,>B,, C,2 E,2 z2 | C,>C, D,2 D,>D, D,D,- | D,2 G,,6 | %8
 G,,>G,, C,2 C,>C, C,C,- | C,C, G,2 G,>G, G,G,- | G,G, G,2 G,>G, G,G, | A,G, D,2 D,2 D,C, | %12
 B,,A,, G,,2- G,,G, G,2 | B,,2 C,2 C,>C, C,2 | C,2 D,2 D,>D, D,<D, | D,2 G,,6- | G,,2 z2 z4 |] %17

